X:84
T:Leave Well Alone
R:slide
Z:id:hn-slide-84
M:6/8
L:1/8
K:D
f2A f2A | f2e efe | dBc d2f | edB ABd |
f2A f2A | f2e efe | dcB ABd | e3 d3 :|
|: ABd def | a2f e2d | B2e efe | d2B BAB |
ABd def | a2f e2d | Bee efe |1 d3 dcB :|2 d3 d3 ||

